dist/svgs/unicons/line/plug.svg

<svg xmlns="http://www.w3.org/2000/svg" data-name="Layer 1" viewBox="0 0 24 24"><path d="M19 6h-3V3a1 1 0 00-2 0v3h-4V3a1 1 0 00-2 0v3H5a1 1 0 000 2h1v5a1 1 0 00.29.71L9 16.41V21a1 1 0 002 0v-4h2v4a1 1 0 002 0v-4.59l2.71-2.7A1 1 0 0018 13V8h1a1 1 0 000-2zm-3 6.59L13.59 15h-3.18L8 12.59V8h8zM11 13h2a1 1 0 000-2h-2a1 1 0 000 2z"/></svg>

<svg xmlns="http://www.w3.org/2000/svg" data-name="Layer 1" viewBox="0 0 24 24"><path d="M19,6H16V3a1,1,0,0,0-2,0V6H10V3A1,1,0,0,0,8,3V6H5A1,1,0,0,0,5,8H6v5a1,1,0,0,0,.29.71L9,16.41V21a1,1,0,0,0,2,0V17h2v4a1,1,0,0,0,2,0V16.41l2.71-2.7A1,1,0,0,0,18,13V8h1a1,1,0,0,0,0-2Zm-3,6.59L13.59,15H10.41L8,12.59V8h8ZM11,13h2a1,1,0,0,0,0-2H11a1,1,0,0,0,0,2Z"/></svg>
